imgs/stonksIcon.svg

<svg width="42" height="37" viewBox="0 0 42 37" fill="none" xmlns="http://www.w3.org/2000/svg">
<path d="M34.8254 0.00195312C31.6235 0.00195312 29.0937 2.69663 29.0937 6.05461C29.0937 9.4126 31.6631 12.0658 34.8254 12.0658C37.9878 12.0658 40.5967 9.37114 40.5967 6.01316C40.5967 2.65517 38.0273 0.00195312 34.8254 0.00195312ZM34.8254 10.7392C32.3351 10.7392 30.3191 8.62492 30.3191 6.01316C30.3191 3.40139 32.3746 1.32856 34.8254 1.32856C37.3158 1.32856 39.3318 3.44285 39.3318 6.05461C39.3318 8.66638 37.3158 10.7392 34.8254 10.7392Z" fill="white"/>
<path d="M36.6438 6.96663C36.6043 6.84226 36.6043 6.75935 36.5252 6.63498C36.4857 6.55207 36.4462 6.4277 36.3671 6.34478C36.288 6.26187 36.2485 6.17896 36.1695 6.09604C36.0904 6.01313 36.0113 5.93022 35.8927 5.88876C35.8137 5.80585 35.6951 5.76439 35.616 5.72293C35.4975 5.68148 35.4184 5.59856 35.2998 5.55711C35.1812 5.51565 35.0626 5.47419 34.9836 5.43274C34.944 5.43274 34.865 5.39128 34.8255 5.34982C34.7859 5.30837 34.7069 5.30837 34.6673 5.26691C34.6278 5.22546 34.5487 5.22546 34.5092 5.184C34.4697 5.14254 34.4302 5.10109 34.3906 5.05963C34.3511 5.01817 34.3116 4.97672 34.3116 4.8938C34.272 4.85235 34.272 4.76943 34.272 4.72798C34.272 4.64506 34.272 4.60361 34.272 4.52069C34.272 4.47924 34.3116 4.39632 34.3116 4.35487C34.3511 4.31341 34.3511 4.2305 34.3906 4.18904C34.4302 4.14758 34.4697 4.10613 34.5092 4.06467C34.5487 4.02321 34.6278 3.98176 34.7069 3.98176C34.7859 3.9403 34.8255 3.9403 34.9045 3.9403C34.944 3.9403 34.9836 3.9403 35.0231 3.9403C35.0626 3.9403 35.1022 3.9403 35.1417 3.9403C35.2207 3.9403 35.2603 3.9403 35.3393 3.98176C35.4184 3.98176 35.4975 4.02321 35.537 4.02321C35.5765 4.02321 35.6556 4.06467 35.6951 4.06467C35.7742 4.06467 35.8137 4.10613 35.8532 4.10613L36.0509 4.18904L36.0904 3.9403L36.1695 3.277V3.11117L36.0113 3.06971C35.9718 3.06971 35.8927 3.02826 35.8532 3.02826C35.8137 3.02826 35.7742 2.9868 35.6951 2.9868C35.6556 2.9868 35.5765 2.94534 35.4975 2.94534C35.4184 2.94534 35.3789 2.90389 35.2998 2.90389H35.2603V2.32349V2.11621H35.0626H34.5092H34.3116V2.32349V2.94534H34.272C34.1535 2.9868 34.0349 3.02826 33.9163 3.11117C33.7977 3.15263 33.7186 3.23554 33.6396 3.31845C33.5605 3.40137 33.4815 3.48428 33.4024 3.60865C33.3233 3.69156 33.2838 3.81593 33.2443 3.9403C33.2047 4.06467 33.1652 4.18904 33.1257 4.31341C33.0862 4.43778 33.0862 4.60361 33.0862 4.72798C33.0862 4.85235 33.0862 4.93526 33.1257 5.05963C33.1652 5.184 33.1652 5.26691 33.2443 5.39128C33.2838 5.47419 33.3629 5.59856 33.4024 5.68148C33.4815 5.76439 33.521 5.8473 33.6 5.93022C33.6791 6.01313 33.7582 6.09604 33.8767 6.1375C33.9558 6.22041 34.0744 6.26187 34.1535 6.30333C34.272 6.34478 34.3906 6.4277 34.4697 6.46915C34.5883 6.51061 34.7069 6.55207 34.7859 6.59352C34.8255 6.59352 34.9045 6.63498 34.944 6.67644C34.9836 6.71789 35.0626 6.71789 35.1022 6.75935C35.1417 6.80081 35.1812 6.84226 35.2207 6.84226C35.2603 6.88372 35.2998 6.92518 35.3393 6.96663C35.3789 7.00809 35.3789 7.04955 35.4184 7.13246C35.4184 7.17391 35.4579 7.25683 35.4579 7.33974C35.4579 7.42265 35.4579 7.46411 35.4579 7.54702C35.4579 7.58848 35.4184 7.67139 35.3789 7.71285C35.3393 7.75431 35.2998 7.79576 35.2603 7.83722C35.2207 7.87868 35.1812 7.92013 35.1022 7.96159C35.0626 8.00305 34.9836 8.00305 34.944 8.0445C34.9045 8.0445 34.8255 8.08596 34.7464 8.08596C34.7069 8.08596 34.6673 8.08596 34.5883 8.08596C34.5487 8.08596 34.4697 8.08596 34.4302 8.08596C34.3511 8.08596 34.272 8.08596 34.2325 8.08596C34.1535 8.08596 34.0744 8.0445 34.0349 8.0445C33.9558 8.0445 33.8767 8.00305 33.7977 7.96159C33.7186 7.92013 33.6396 7.92013 33.5605 7.87868C33.521 7.87868 33.4815 7.83722 33.4419 7.83722C33.4024 7.83722 33.3629 7.79576 33.3233 7.79576L33.0862 7.67139L33.0466 7.96159L32.9676 8.70781V8.83218L33.0862 8.87364C33.2443 8.83218 33.3233 8.87364 33.4419 8.91509C33.521 8.95655 33.6396 8.99801 33.7186 8.99801C33.7977 9.03946 33.9163 9.03946 34.0349 9.08092C34.1535 9.12238 34.2325 9.12237 34.3511 9.12237H34.4302V9.74422V9.95151H34.6278H35.1812H35.3789V9.74422V9.08092H35.4184C35.537 9.03946 35.6556 8.99801 35.7742 8.91509C35.8927 8.87364 35.9718 8.79072 36.0904 8.70781C36.1695 8.6249 36.2485 8.54198 36.3276 8.41761C36.4066 8.3347 36.4462 8.21033 36.5252 8.08596C36.5647 7.96159 36.6043 7.83722 36.6438 7.71285C36.6833 7.58848 36.6833 7.46411 36.6833 7.29828C36.6833 7.17391 36.6833 7.091 36.6438 6.96663Z" fill="white"/>
<path d="M32.0583 12.8535C31.8607 12.5633 31.4259 12.5219 31.1492 12.7292L24.7454 18.0771L16.4837 14.4703C16.2861 14.3874 16.0489 14.4289 15.8908 14.5533L7.03621 21.1863C6.75951 21.3936 6.68045 21.8082 6.8781 22.0984C6.99668 22.3056 7.19433 22.3885 7.39198 22.3885C7.51057 22.3885 7.62916 22.3471 7.74774 22.2642L16.3256 15.8384L24.6268 19.4451C24.8244 19.528 25.1012 19.4866 25.2593 19.3622L31.9397 13.807C32.2165 13.5997 32.256 13.1437 32.0583 12.8535Z" fill="white"/>
<path d="M41.3082 35.5717H38.3831V16.3773C38.3831 16.0042 38.1064 15.714 37.7506 15.714H31.9398C31.584 15.714 31.3073 16.0042 31.3073 16.3773V35.5717H29.1727V23.0103C29.1727 22.6372 28.896 22.347 28.5402 22.347H22.6899C22.3341 22.347 22.0574 22.6372 22.0574 23.0103V35.5717H19.9228V22.0154C19.9228 21.6423 19.6461 21.3521 19.2904 21.3521H13.4795C13.1238 21.3521 12.8471 21.6423 12.8471 22.0154V35.5717H10.7125V25.9123C10.7125 25.5392 10.4358 25.249 10.08 25.249H4.22965C3.87388 25.249 3.59718 25.5392 3.59718 25.9123V35.5717H0.632471C0.276706 35.5717 0 35.8619 0 36.235C0 36.6081 0.276706 36.8983 0.632471 36.8983H4.19012H10.0009H13.4795H19.2904H22.6899H28.5007H31.9002H37.7111H41.2687C41.6245 36.8983 41.9012 36.6081 41.9012 36.235C41.9407 35.8619 41.664 35.5717 41.3082 35.5717ZM9.408 35.5717H4.86212V26.5756H9.408V35.5717ZM18.6579 35.5717H14.112V22.6787H18.6579V35.5717ZM27.8682 35.5717H23.3224V23.6737H27.8682V35.5717ZM37.1181 35.5717H32.5722V17.0406H37.1181V35.5717Z" fill="white"/>
</svg>

<svg xmlns="http://www.w3.org/2000/svg" width="42" height="37" fill="#fff" xmlns:v="https://vecta.io/nano"><path d="M34.825.002c-3.202 0-5.732 2.695-5.732 6.053s2.569 6.011 5.732 6.011 5.771-2.695 5.771-6.053S38.027.002 34.825.002zm0 10.737c-2.49 0-4.506-2.114-4.506-4.726s2.056-4.685 4.506-4.685c2.49 0 4.506 2.114 4.506 4.726s-2.016 4.685-4.506 4.685zm1.819-3.772c-.039-.124-.039-.207-.119-.332-.039-.083-.079-.207-.158-.29s-.119-.166-.198-.249-.158-.166-.277-.207c-.079-.083-.198-.124-.277-.166-.118-.041-.198-.124-.316-.166l-.316-.124c-.04 0-.119-.041-.158-.083s-.119-.041-.158-.083-.119-.041-.158-.083l-.119-.124c-.039-.041-.079-.083-.079-.166-.04-.041-.04-.124-.04-.166v-.207c0-.041.04-.124.04-.166.04-.041.04-.124.079-.166l.119-.124c.039-.041.119-.083.198-.083.079-.041.119-.041.198-.041h.119.119c.079 0 .119 0 .198.041.079 0 .158.041.198.041s.119.041.158.041c.079 0 .119.041.158.041l.198.083.04-.249.079-.663V3.11l-.158-.041c-.039 0-.119-.041-.158-.041s-.079-.041-.158-.041c-.039 0-.119-.041-.198-.041s-.119-.041-.198-.041h-.039v-.58-.207h-.198-.553-.198v.207.622h-.04c-.118.041-.237.083-.356.166-.119.041-.198.124-.277.207s-.158.166-.237.29c-.079.083-.119.207-.158.332l-.119.373c-.04.124-.04.29-.04.415s0 .207.04.332.039.207.119.332c.039.083.119.207.158.29.079.083.119.166.198.249s.158.166.277.207c.079.083.198.124.277.166.118.041.237.124.316.166l.316.124c.04 0 .119.041.158.083s.119.041.158.083.079.083.118.083l.119.124c.04.041.04.083.079.166 0 .041.04.124.04.207v.207a.33.33 0 0 1-.079.166l-.119.124c-.04.041-.079.083-.158.124-.04.041-.119.041-.158.083-.04 0-.119.041-.198.041h-.158-.158-.198c-.079 0-.158-.041-.198-.041-.079 0-.158-.041-.237-.083s-.158-.041-.237-.083c-.039 0-.079-.041-.119-.041s-.079-.041-.119-.041l-.237-.124-.04.29-.079.746v.124l.119.041c.158-.041.237 0 .356.041.079.041.198.083.277.083.079.041.198.041.316.083s.198.041.316.041h.079v.622.207h.198.553.198v-.207-.663h.039c.119-.041.237-.083.356-.166.118-.041.198-.124.316-.207.079-.083.158-.166.237-.29.079-.083.119-.207.198-.332l.119-.373c.04-.124.04-.249.04-.415 0-.124 0-.207-.04-.332zm-4.586 5.887c-.198-.29-.632-.332-.909-.124l-6.404 5.348-8.262-3.607c-.198-.083-.435-.041-.593.083l-8.855 6.633c-.277.207-.356.622-.158.912a.57.57 0 0 0 .514.29c.119 0 .237-.041.356-.124l8.578-6.426 8.301 3.607c.198.083.474.041.633-.083l6.68-5.555c.277-.207.316-.663.119-.953zm9.25 22.718h-2.925V16.377c0-.373-.277-.663-.633-.663h-5.81c-.356 0-.633.29-.633.663v19.194h-2.135V23.01c0-.373-.277-.663-.633-.663h-5.85c-.356 0-.633.29-.633.663v12.561h-2.135V22.015c0-.373-.277-.663-.632-.663H13.48c-.356 0-.632.29-.632.663v13.556h-2.135v-9.659c0-.373-.277-.663-.633-.663H4.23c-.356 0-.632.29-.632.663v9.659H.632c-.356 0-.632.29-.632.663s.277.663.632.663H4.19h5.811 3.479 5.811 3.399 5.811 3.4 5.811 3.558c.356 0 .633-.29.633-.663.039-.373-.237-.663-.593-.663zm-31.9 0H4.862v-8.996h4.546v8.996zm9.25 0h-4.546V22.679h4.546v12.893zm9.21 0h-4.546V23.674h4.546v11.898zm9.25 0h-4.546V17.041h4.546v18.531z"/></svg>
